img/union-3.svg

<svg fill="none" height="35" viewBox="0 0 77 35" width="77" xmlns="http://www.w3.org/2000/svg"><path clip-rule="evenodd" d="m76.3887 16.9615c.3379-1.2737-.8278-2.4365-2.1006-2.0955l-8.0658 2.1612c-.5669.1519-1.1837.0124-1.5621-.4362-1.4231-1.6873-2.0227-3.9252-1.6339-6.0979.1034-.57775.5678-1.00698 1.1346-1.15888l7.9716-2.13597c1.2729-.34107 1.701-1.93097.7715-2.86507l-3.0334-3.04833c-.4331-.435207-1.0658-.605585-1.6588-.44668l-10.5317 2.82195c-.593.1589-1.0558.62282-1.2133 1.21625l-.7816 2.94631c-.5249 1.9781-2.0675 3.52452-4.0443 4.05422l-47.80862 12.8103c-2.58753.6933-4.123093 3.3529-3.429764 5.9405.693324 2.5875 3.352994 4.1231 5.940534 3.4298l47.80735-12.81c1.9768-.5297 4.086.0383 5.5295 1.4889l2.152 2.1626c.4331.4352 1.0658.6056 1.6588.4467l10.5317-2.822c.593-.1589 1.0558-.6228 1.2133-1.2162z" fill="#fff500" fill-rule="evenodd"/></svg>

<svg width="77" height="35" viewBox="0 0 77 35" fill="none" xmlns="http://www.w3.org/2000/svg">
<path fill-rule="evenodd" clip-rule="evenodd" d="M76.3887 16.9615C76.7266 15.6878 75.5609 14.525 74.2881 14.866L66.2223 17.0272C65.6554 17.1791 65.0386 17.0396 64.6602 16.591C63.2371 14.9037 62.6375 12.6658 63.0263 10.4931C63.1297 9.91535 63.5941 9.48612 64.1609 9.33422L72.1325 7.19825C73.4054 6.85718 73.8335 5.26728 72.904 4.33318L69.8706 1.28485C69.4375 0.849643 68.8048 0.679265 68.2118 0.83817L57.6801 3.66012C57.0871 3.81902 56.6243 4.28294 56.4668 4.87637L55.6852 7.82268C55.1603 9.80078 53.6177 11.3472 51.6409 11.8769L3.83228 24.6872C1.24475 25.3805 -0.290813 28.0401 0.402516 30.6277C1.09584 33.2152 3.75551 34.7508 6.34305 34.0575L54.1504 21.2475C56.1272 20.7178 58.2364 21.2858 59.6799 22.7364L61.8319 24.899C62.265 25.3342 62.8977 25.5046 63.4907 25.3457L74.0224 22.5237C74.6154 22.3648 75.0782 21.9009 75.2357 21.3075L76.3887 16.9615Z" fill="#FFF500"/>
</svg>
